public/svg/profiles/raptr.svg

<?xml version="1.0" encoding="UTF-8" standalone="no"?>
<svg width="50px" height="50px" viewBox="0 0 50 50" version="1.1" xmlns="http://www.w3.org/2000/svg" xmlns:xlink="http://www.w3.org/1999/xlink">
    <defs></defs>
    <g stroke="none" stroke-width="1" fill="none" fill-rule="evenodd">
        <g>
            <circle id="Oval" fill="#F28F2C" cx="25" cy="25" r="25"></circle>
            <path d="M28.5628906,39.2714844 C29.0744141,38.4643555 30.4527344,37.2431641 30.1173828,34.5867188 C30.0785156,34.1736328 30.4527344,34.1338867 30.5509766,34.5271484 C31.0825195,36.4368164 29.7435547,38.562793 28.5628906,39.271582 L28.5628906,39.2714844 Z M26.0238281,14.015918 C26.2199219,14.0943359 26.2401367,15.4725586 25.6693359,15.2556641 C25.2949219,15.118457 25.8072266,13.9568359 26.0238281,14.015918 L26.0238281,14.015918 Z M16.4369141,20.590625 C16.7521484,21.3582031 17.0667969,22.4407227 19.46875,23.5431641 C28.5234375,27.5584961 37.4798828,24.0550781 36.4560547,18.1105469 C35.7673828,14.1339844 30.4527344,9.48789062 25.9441406,8.3859375 C19.2517578,6.73212891 14.3306641,12.2048828 14.074707,16.8310547 C13.8780273,20.3152344 14.7634766,23.0708984 14.9013672,26.5942383 C14.9211914,26.7128906 14.9013672,26.8894531 14.8033203,26.9295898 C13.9173828,27.1067383 12.4211914,27.4999023 12.3423828,27.7164062 C12.244043,28.1294922 12.4998047,29.8030273 12.6182617,30.334082 C12.6577148,30.5316406 12.7754883,30.5896484 12.8741211,30.3936523 C13.0313477,30.078418 12.8741211,29.2720703 13.0512695,28.9371094 C13.1694336,28.7398437 13.5039062,28.7013672 14.134082,28.7013672 C14.4491211,28.7013672 15.2362305,28.6613281 15.2167969,28.9955078 C15.196875,29.1530273 15.1774414,29.350293 15.0200195,29.5082031 C14.1538086,30.3744141 13.6026367,32.0274414 13.7598633,33.0707031 C13.7989258,33.3072266 13.9569336,33.2480469 14.0157227,32.9920898 C14.3311523,31.7326172 14.9805664,30.905957 15.6889648,30.8067383 C15.8464844,30.8067383 15.8464844,31.0242187 15.8663086,31.1420898 C16.0040039,31.96875 16.3583008,33.0512695 16.6336914,33.7795898 C17.303125,35.4919922 18.2479492,37.1262695 19.6258789,38.3862305 C19.8231445,38.5629883 19.6063477,38.6030273 19.4688477,38.6417969 C18.7007813,38.7993164 15.8663086,39.9208984 15.4131836,41.8900391 C15.3938477,42.0673828 15.8269531,41.6138672 16.122168,41.4955078 C16.3191406,41.4166016 16.850293,41.4570312 18.090625,41.4570312 L26.1617187,41.4762695 C26.8501953,41.4370117 27.4019531,41.0634766 27.8345703,40.787793 C30.9644531,38.7010742 33.2876953,36.3973633 35.5111328,33.03125 C35.7674805,32.6181641 38.7005859,27.5795898 37.3029297,28.9956055 C37.2836914,29.0352539 33.6814453,32.3025391 31.1417969,32.5989258 C30.1769531,32.7170898 29.8820312,32.8541016 29.3507812,32.1262695 C26.6734375,28.8776367 21.9683594,27.4605469 21.7521484,27.1069336 C21.4762695,26.5942383 21.378125,25.2762695 20.9845703,25.0786133 C20.1579102,24.6261719 19.2130859,24.2912109 18.0316406,23.7006836 C16.6339844,23.012207 16.437207,22.0473633 16.437207,20.590625 L16.4369141,20.590625 Z M16.2597656,30.5317383 C17.1060547,30.0786133 18.4055664,29.0551758 18.5432617,28.0907227 C18.5432617,27.8348633 18.9368164,27.7163086 19.0155273,28.0707031 C19.2710938,29.3695313 17.6573242,30.2556641 16.259668,30.5316406 L16.2597656,30.5317383 Z M27.2239258,12.0867187 C27.3025391,11.3977539 26.8500977,11.4765625 26.5354492,11.8896484 C26.2984375,12.1850586 25.7083008,12.952832 25.2753906,14.1142578 C24.9211914,15.0787109 24.6654297,16.2009766 24.6458008,16.850293 C24.6458008,17.2443359 24.6848633,17.3618164 24.8030273,17.4015625 C25.000293,17.4803711 25.1967773,17.2836914 25.3540039,17.0470703 C26.3188477,15.7871094 27.0668945,13.8385742 27.2239258,12.0867187 L27.2239258,12.0867187 Z M26.3186523,19.9998047 C22.9724609,19.9998047 21.4368164,18.3269531 20.5510742,17.2836914 C18.6217773,15.0196289 19.4290039,11.4765625 22.047168,10.2563477 C25.1770508,8.77978516 29.8621094,10.1179687 31.4758789,13.7794922 C33.1489258,17.5983398 29.9999023,19.9999023 26.3186523,19.9999023 L26.3186523,19.9998047 Z" id="Shape" fill="#FFFFFF"></path>
        </g>
    </g>
</svg>

<svg width="50" height="50" viewBox="0 0 50 50" xmlns="http://www.w3.org/2000/svg"><g fill="none" fill-rule="evenodd"><circle fill="#F28F2C" cx="25" cy="25" r="25"/><path d="M28.563 39.27c.51-.806 1.89-2.027 1.554-4.683-.038-.413.336-.453.434-.06.533 1.91-.806 4.036-1.987 4.745zm-2.54-25.254c.197.078.217 1.457-.354 1.24-.375-.138.137-1.3.354-1.24zm-9.586 6.575c.315.768.63 1.85 3.032 2.953 9.053 4.015 18.01.512 16.986-5.432-.69-3.976-6.003-8.622-10.512-9.724-6.692-1.654-11.613 3.82-11.87 8.445-.196 3.485.69 6.24.827 9.764.02.12 0 .295-.097.336-.886.177-2.382.57-2.46.786-.1.413.157 2.087.275 2.618.04.198.157.256.256.06.157-.316 0-1.122.177-1.457.12-.197.454-.236 1.084-.236.315 0 1.102-.04 1.083.296-.02.157-.04.354-.197.512-.866.866-1.417 2.52-1.26 3.563.04.237.197.178.256-.078.315-1.26.965-2.086 1.673-2.185.156 0 .156.217.176.335.138.827.492 1.91.768 2.638.67 1.712 1.614 3.346 2.992 4.606.197.177-.02.217-.157.256-.77.157-3.604 1.28-4.057 3.248-.02.177.414-.276.71-.394.196-.08.727-.04 1.968-.04l8.072.02c.688-.04 1.24-.413 1.673-.688 3.13-2.087 5.453-4.39 7.676-7.757.257-.412 3.19-5.45 1.793-4.034-.02.04-3.622 3.307-6.16 3.603-.966.117-1.26.254-1.792-.474-2.677-3.248-7.382-4.665-7.598-5.02-.276-.512-.374-1.83-.767-2.027-.827-.454-1.772-.79-2.953-1.38-1.398-.688-1.595-1.653-1.595-3.11zm-.177 9.942c.846-.453 2.146-1.477 2.283-2.44 0-.257.394-.376.473-.02.255 1.298-1.36 2.184-2.756 2.46zm10.964-18.445c.08-.69-.374-.61-.69-.197-.236.295-.826 1.063-1.26 2.224-.353.965-.61 2.087-.628 2.736 0 .394.04.512.157.552.197.078.394-.118.55-.355.966-1.26 1.714-3.208 1.87-4.96zM26.32 20c-3.348 0-4.883-1.673-5.77-2.716-1.928-2.264-1.12-5.807 1.497-7.028 3.13-1.476 7.815-.138 9.43 3.523C33.148 17.597 30 20 26.318 20z" fill="#FFF"/></g></svg>
